!!!SOCIAL_FUNCTION:	songs concerning the sacred stones
!!!PDT:	1918

Specific Region: Dakotas, Minnesota, Montana, Nebraska
!!!REG: Dakotas and Montana
!!!LING_GROUP: Siouan
!!!LANG: Tone
!!!OTL@ENG: I Am Required to Roam
!!!ONM: No. 70
**kern
*Imale
*clefF4
*k[f#c#g#d#a#]
*M2/4
*MM69
16f#
=1
4f#
8f#
16d#
16d#
=2
4f#
8.f#
16d#
=3
16d#
8.f#
(12f#
12d#)
12d#
=4||
*M3/4
(16f#
16d#)
16f#
16B
4B
4B
=5||
*M2/4
8d#
8d#
12d#
12c#
12d#
=6
12d#
12d#
12d#
12d#
12A#
12B
=7
8.G#
16G#
4G#
=8
8B
16B
16B
12B
12G#
12G#
=9
16B
16B
8G#
12G#
12F#
12F#
=10
8.D#
16D#
4D#
=11
8.D#
16D#
16D#
8.D#
=12
16G#
16G#
8F#
16G#
16F#
8G#
=13
4D#
8.D#
16D#
=14
2D#
==
*-
!!!CNT: Native American -- Sioux
!!!MRD: 1911/07//-1914///
!!!OCL: Frances Densmore
!!!YOR1: Teton Sioux Music, Bulletin 61,
!!!YOR2: Bureau of American Ethnology, Smithsonian Institution
!!!PPR: Government Printing Office
!!!PPP: Washington, D.C.
!!!PDT: 1918///
!!!ENC: Craig Stuart Sapp
!!!END: 2002/03/25/
!!!EEV: 2002/03/31/
!!!AGN: Song of Personal Dreams/Song Concerning the Sacred Stones
!!!MPN@@SIO: Wamni'yomni-ho'ta
!!!MPN@ENG: Gray Whirlwind
!!!TXO: Teton Sioux
!!!MLC: Standing Rock Reservation, South Dakota, United States of America
!!!ARL: 45.9/-100.7#
!!!catalog: Catalogue No. 668
!!!PPG: 227
!!!EFL: 70/245
!!!VTS: 4224173523
